X: 34044
T: Reel De Gaspé
R: reel
M: 4/4
K: Dmajor
e|:"D"f2ef e2dB|AFA2 B2A2|"G"g2fg "Em"f2e2|"A7"BABc B2A2|
"D"f2ef e2dB|AFA2 B2A2|"G"g2fg "Em"f2e2|"A7"B2c2 "D"d4:|
|:"A7"e2f2 g4|"D"f2g2 a4|"Em"e2f2 g2e2|"A7"BABc B2A2|
"A7"c2d2 e4|"D"d2e2 f4|"G"g3f "Em"e2d2|"A7"B2c2 "D"d4:|

